icons/rss3-openagent.svg

<svg width="200" height="200" viewBox="0 0 200 200" fill="none" xmlns="http://www.w3.org/2000/svg">
<rect width="200" height="200" fill="white"/>
<path fill-rule="evenodd" clip-rule="evenodd" d="M30 123.331C28.3431 123.331 27 121.988 27 120.331V91.25C27 89.5931 28.3431 88.25 30 88.25H56.7419C58.3988 88.25 59.7419 86.9068 59.7419 85.25V55C59.7419 53.3431 61.0851 52 62.7419 52H137.427C139.084 52 140.427 53.3431 140.427 55V85.25C140.427 86.9069 141.771 88.25 143.427 88.25H169C170.657 88.25 172 89.5931 172 91.25V120.331C172 121.988 170.657 123.331 169 123.331H143.427C141.771 123.331 140.427 124.674 140.427 126.331V144.887C140.427 146.544 139.084 147.887 137.427 147.887H102.5C100.843 147.887 99.5 146.544 99.5 144.887V126.331C99.5 124.674 100.843 123.331 102.5 123.331H137.427C139.084 123.331 140.427 121.988 140.427 120.331V91.25C140.427 89.5931 139.084 88.25 137.427 88.25H62.7419C61.0851 88.25 59.7419 89.5931 59.7419 91.25V118.653V120.331C59.7419 121.988 58.3988 123.331 56.7419 123.331H30Z" fill="#1477FB"/>
</svg>

<svg xmlns="http://www.w3.org/2000/svg" fill="none" viewBox="0 0 200 200">
  <path fill="#fff" d="M0 0h200v200H0z"/>
  <path fill="#1477FB" fill-rule="evenodd" d="M30 123.331a3 3 0 0 1-3-3V91.25a3 3 0 0 1 3-3h26.742a3 3 0 0 0 3-3V55a3 3 0 0 1 3-3h74.685a3 3 0 0 1 3 3v30.25a3 3 0 0 0 3 3H169a3 3 0 0 1 3 3v29.081a3 3 0 0 1-3 3h-25.573a3 3 0 0 0-3 3v18.556a3 3 0 0 1-3 3H102.5a3 3 0 0 1-3-3v-18.556a3 3 0 0 1 3-3h34.927a3 3 0 0 0 3-3V91.25a3 3 0 0 0-3-3H62.742a3 3 0 0 0-3 3v29.081a3 3 0 0 1-3 3z" clip-rule="evenodd"/>
</svg>
